Origami/24x24/apps/latte-dock.svg

<svg width="24" height="24" version="1.1" viewBox="0 0 24 24" xmlns="http://www.w3.org/2000/svg">
 <g transform="translate(0,-1028.3622)">
  <circle cx="12" cy="1040.862" r="10" style="opacity:.2"/>
  <circle cx="12" cy="1040.362" r="10" style="fill:#d2a35c"/>
  <path d="m16.675781 1033.8505c-0.445236-0.02-0.937879 0.1023-1.550781 0.3476-0.74629 0.2986-1.337985 0.9663-1.912109 1.7891-0.574125 0.8229-1.118905 1.8223-1.646485 2.8418-0.745807 1.4412-1.398016 2.4856-2.0527341 3.5176-0.1566-0.068-0.6392641-0.2909-1.3457031-0.4063-0.4060099-0.066-0.8409036-0.096-1.265625 0.051-0.4226215 0.1463-0.8090128 0.5632-0.8828126 1.1016-0.057606 0.3737 0.041701 0.749 0.2480469 1.0234 0.2082956 0.2771 0.5002198 0.4606 0.8183594 0.5781 0.6362793 0.2349 1.4075661 0.2246 2.1171875-0.068l0.087891-0.037 0.070312-0.064c0.1700201-0.1666 0.3206494-0.4884 0.484375-0.7012 0.105813 0.09 0.091696 0.092 0.216797 0.1875 0.52739 0.4009 1.185002 0.8536 1.949219 0.8536 0.68516 0 1.65206-0.2639 2.533203-0.5176s1.626953-0.5059 1.626953-0.5059l-0.322266-0.9512s-0.72674 0.2459-1.582031 0.4922c-0.855291 0.2462-1.886927 0.4825-2.255859 0.4825-0.289875 0-0.884664-0.2955-1.34375-0.6446-0.145046-0.1102-0.137887-0.1213-0.251953-0.2207 0.681715-1.1002 1.347765-2.3731 2.039062-3.709 0.520955-1.0067 1.050733-1.9735 1.576172-2.7265 0.525439-0.7531 1.058362-1.273 1.464844-1.4356 0.539869-0.2161 0.925063-0.2847 1.134765-0.2754 0.209703 0.01 0.22244 0.037 0.271485 0.1172 0.09809 0.1596 0.117646 0.8703-0.08008 1.791l0.978515 0.211c0.210561-0.9806 0.380705-1.8317-0.04687-2.5274-0.2138-0.3479-0.632889-0.5721-1.078125-0.5918zm-9.1191404 9.0351c0.1349064 0 0.2898877 0.01 0.4492188 0.035v0.01c0.4871855 0.08 0.7843753 0.2166 0.9941406 0.3007-0.082459 0.1043-0.2010181 0.3976-0.2792969 0.4786-0.4437671 0.1532-0.9539914 0.1737-1.2890625 0.051-0.1804813-0.067-0.3038822-0.1605-0.3652344-0.2421-0.061352-0.082-0.083542-0.1418-0.0625-0.2715l0.00195-0.01 0.00195-0.012c0.030301-0.2314 0.063929-0.2367 0.2207031-0.291 0.078387-0.027 0.1932186-0.043 0.328125-0.045zm1.4433594 2.9766a1 1 0 0 0 -1 1 1 1 0 0 0 1 1 1 1 0 0 0 1 -1 1 1 0 0 0 -1 -1zm6 0a1 1 0 0 0 -1 1 1 1 0 0 0 1 1 1 1 0 0 0 1 -1 1 1 0 0 0 -1 -1zm-3 1a1 1 0 0 0 -1 1 1 1 0 0 0 1 1 1 1 0 0 0 1 -1 1 1 0 0 0 -1 -1z" style="opacity:.2"/>
  <path transform="translate(0,1028.3622)" d="m16.675781 4.9882812c-0.445236-0.0199999-0.937879 0.1023563-1.550781 0.3476563-0.74629 0.2986-1.337985 0.9662625-1.912109 1.7890625-0.574125 0.8229-1.118905 1.8222969-1.646485 2.8417969-0.745807 1.4412001-1.398016 2.4855781-2.0527341 3.5175781-0.1566-0.068-0.6392641-0.29085-1.3457031-0.40625-0.4060099-0.066-0.8409036-0.096219-1.265625 0.050781-0.4226215 0.1463-0.8090128 0.563163-0.8828126 1.101563-0.0576059 0.3737 0.041701 0.749037 0.2480469 1.023437 0.2082956 0.2771 0.5002198 0.460625 0.8183594 0.578125 0.6362793 0.2349 1.4075661 0.224541 2.1171875-0.068359l0.0878906-0.03711 0.0703125-0.064453c0.1700201-0.1666 0.3206494-0.488371 0.484375-0.701171 0.105813 0.089999 0.0916959 0.092 0.2167969 0.1875 0.52739 0.4009 1.185002 0.853515 1.949219 0.853515 0.68516 0 1.65206-0.263878 2.533203-0.517578s1.626953-0.505859 1.626953-0.505859l-0.322266-0.951172s-0.72674 0.245887-1.582031 0.492187c-0.855291 0.2462-1.886927 0.482422-2.255859 0.482422-0.289875 0-0.884664-0.295431-1.34375-0.644531-0.145046-0.1102-0.137887-0.121303-0.251953-0.220703 0.681715-1.1002 1.347765-2.373085 2.039062-3.708985 0.520955-1.0066996 1.050733-1.9735621 1.576172-2.7265621 0.525439-0.7531 1.058362-1.2729469 1.464844-1.4355469 0.539869-0.2161 0.925063-0.2846906 1.134765-0.2753906 0.209703 0.01 0.22244 0.0368875 0.271485 0.1171875 0.09809 0.1596 0.117646 0.8703156-0.080078 1.7910156l0.978515 0.2109375c0.210561-0.9806 0.380705-1.8316438-0.046875-2.5273438-0.2138-0.3478999-0.632889-0.5720968-1.078125-0.5917968v-0.0019532zm-9.1191404 9.0351568c0.1349064 0 0.2898877 0.010156 0.4492188 0.035156v0.009765c0.4871855 0.08 0.7843753 0.216682 0.9941406 0.300782-0.082459 0.1043-0.2010181 0.397515-0.2792969 0.478515-0.4437671 0.1532-0.9539914 0.173782-1.2890625 0.050782-0.1804813-0.067001-0.3038822-0.160588-0.3652344-0.242188-0.061352-0.082-0.083542-0.141784-0.0625-0.271484l0.0019532-0.009766 0.0019531-0.011719c0.030301-0.2314 0.063929-0.236715 0.2207031-0.291015 0.078387-0.027 0.1932186-0.042922 0.328125-0.044922v-0.003906zm1.4433594 2.976562a1 1 0 0 0 -1 1 1 1 0 0 0 1 1 1 1 0 0 0 1 -1 1 1 0 0 0 -1 -1zm6 0a1 1 0 0 0 -1 1 1 1 0 0 0 1 1 1 1 0 0 0 1 -1 1 1 0 0 0 -1 -1zm-3 1a1 1 0 0 0 -1 1 1 1 0 0 0 1 1 1 1 0 0 0 1 -1 1 1 0 0 0 -1 -1z" style="fill:#ffffff"/>
  <path transform="translate(0,1028.3622)" d="M 12 2 A 10 10 0 0 0 2 12 A 10 10 0 0 0 2.0097656 12.292969 A 10 10 0 0 1 12 2.5 A 10 10 0 0 1 21.990234 12.207031 A 10 10 0 0 0 22 12 A 10 10 0 0 0 12 2 z" style="fill:#ffffff;opacity:.2"/>
 </g>
</svg>

<svg xmlns="http://www.w3.org/2000/svg" width="24" height="24" version="1.1" viewBox="0 0 24 24">
 <g transform="translate(0,-1028.3622)">
  <circle style="opacity:0.2" cx="12" cy="1040.862" r="10"/>
  <path cx="12" cy="1040.362" r="10"/>
  <circle style="fill:#d2a35c" cx="12" cy="1040.362" r="10"/>
  <path style="opacity:0.2" d="m 16.675781,1033.8505 c -0.445236,-0.02 -0.937879,0.1023 -1.550781,0.3476 -0.74629,0.2986 -1.337985,0.9663 -1.912109,1.7891 -0.574125,0.8229 -1.118905,1.8223 -1.646485,2.8418 -0.745807,1.4412 -1.398016,2.4856 -2.0527341,3.5176 -0.1566,-0.068 -0.6392641,-0.2909 -1.3457031,-0.4063 -0.4060099,-0.066 -0.8409036,-0.096 -1.265625,0.051 -0.4226215,0.1463 -0.8090128,0.5632 -0.8828126,1.1016 -0.057606,0.3737 0.041701,0.749 0.2480469,1.0234 0.2082956,0.2771 0.5002198,0.4606 0.8183594,0.5781 0.6362793,0.2349 1.4075661,0.2246 2.1171875,-0.068 l 0.087891,-0.037 0.070312,-0.064 c 0.1700201,-0.1666 0.3206494,-0.4884 0.484375,-0.7012 0.105813,0.09 0.091696,0.092 0.216797,0.1875 0.52739,0.4009 1.185002,0.8536 1.949219,0.8536 0.68516,0 1.65206,-0.2639 2.533203,-0.5176 0.881143,-0.2537 1.626953,-0.5059 1.626953,-0.5059 l -0.322266,-0.9512 c 0,0 -0.72674,0.2459 -1.582031,0.4922 -0.855291,0.2462 -1.886927,0.4825 -2.255859,0.4825 -0.289875,0 -0.884664,-0.2955 -1.34375,-0.6446 -0.145046,-0.1102 -0.137887,-0.1213 -0.251953,-0.2207 0.681715,-1.1002 1.347765,-2.3731 2.039062,-3.709 0.520955,-1.0067 1.050733,-1.9735 1.576172,-2.7265 0.525439,-0.7531 1.058362,-1.273 1.464844,-1.4356 0.539869,-0.2161 0.925063,-0.2847 1.134765,-0.2754 0.209703,0.01 0.22244,0.037 0.271485,0.1172 0.09809,0.1596 0.117646,0.8703 -0.08008,1.791 l 0.978515,0.211 c 0.210561,-0.9806 0.380705,-1.8317 -0.04687,-2.5274 -0.2138,-0.3479 -0.632889,-0.5721 -1.078125,-0.5918 l 0,0 z m -9.1191404,9.0351 c 0.1349064,0 0.2898877,0.01 0.4492188,0.035 l 0,0.01 c 0.4871855,0.08 0.7843753,0.2166 0.9941406,0.3007 -0.082459,0.1043 -0.2010181,0.3976 -0.2792969,0.4786 -0.4437671,0.1532 -0.9539914,0.1737 -1.2890625,0.051 -0.1804813,-0.067 -0.3038822,-0.1605 -0.3652344,-0.2421 -0.061352,-0.082 -0.083542,-0.1418 -0.0625,-0.2715 l 0.00195,-0.01 0.00195,-0.012 c 0.030301,-0.2314 0.063929,-0.2367 0.2207031,-0.291 0.078387,-0.027 0.1932186,-0.043 0.328125,-0.045 l 0,0 z M 9,1045.8622 a 1,1 0 0 0 -1,1 1,1 0 0 0 1,1 1,1 0 0 0 1,-1 1,1 0 0 0 -1,-1 z m 6,0 a 1,1 0 0 0 -1,1 1,1 0 0 0 1,1 1,1 0 0 0 1,-1 1,1 0 0 0 -1,-1 z m -3,1 a 1,1 0 0 0 -1,1 1,1 0 0 0 1,1 1,1 0 0 0 1,-1 1,1 0 0 0 -1,-1 z"/>
  <path style="fill:#ffffff" d="M 16.675781 4.9882812 C 16.230545 4.9682813 15.737902 5.0906375 15.125 5.3359375 C 14.37871 5.6345375 13.787015 6.3022 13.212891 7.125 C 12.638766 7.9479 12.093986 8.9472969 11.566406 9.9667969 C 10.820599 11.407997 10.16839 12.452375 9.5136719 13.484375 C 9.3570719 13.416375 8.8744078 13.193525 8.1679688 13.078125 C 7.7619589 13.012125 7.3270652 12.981906 6.9023438 13.128906 C 6.4797223 13.275206 6.093331 13.692069 6.0195312 14.230469 C 5.9619253 14.604169 6.0612322 14.979506 6.2675781 15.253906 C 6.4758737 15.531006 6.7677979 15.714531 7.0859375 15.832031 C 7.7222168 16.066931 8.4935036 16.056572 9.203125 15.763672 L 9.2910156 15.726562 L 9.3613281 15.662109 C 9.5313482 15.495509 9.6819775 15.173738 9.8457031 14.960938 C 9.9515161 15.050937 9.937399 15.052938 10.0625 15.148438 C 10.58989 15.549338 11.247502 16.001953 12.011719 16.001953 C 12.696879 16.001953 13.663779 15.738075 14.544922 15.484375 C 15.426065 15.230675 16.171875 14.978516 16.171875 14.978516 L 15.849609 14.027344 C 15.849609 14.027344 15.122869 14.273231 14.267578 14.519531 C 13.412287 14.765731 12.380651 15.001953 12.011719 15.001953 C 11.721844 15.001953 11.127055 14.706522 10.667969 14.357422 C 10.522923 14.247222 10.530082 14.236119 10.416016 14.136719 C 11.097731 13.036519 11.763781 11.763634 12.455078 10.427734 C 12.976033 9.4210344 13.505811 8.4541719 14.03125 7.7011719 C 14.556689 6.9480719 15.089612 6.428225 15.496094 6.265625 C 16.035963 6.049525 16.421157 5.9809344 16.630859 5.9902344 C 16.840562 6.0002344 16.853299 6.0271219 16.902344 6.1074219 C 17.000434 6.2670219 17.01999 6.9777375 16.822266 7.8984375 L 17.800781 8.109375 C 18.011342 7.128775 18.181486 6.2777312 17.753906 5.5820312 C 17.540106 5.2341313 17.121017 5.0099344 16.675781 4.9902344 L 16.675781 4.9882812 z M 7.5566406 14.023438 C 7.691547 14.023438 7.8465283 14.033594 8.0058594 14.058594 L 8.0058594 14.068359 C 8.4930449 14.148359 8.7902347 14.285041 9 14.369141 C 8.917541 14.473441 8.7989819 14.766656 8.7207031 14.847656 C 8.276936 15.000856 7.7667117 15.021438 7.4316406 14.898438 C 7.2511593 14.831437 7.1277584 14.73785 7.0664062 14.65625 C 7.0050542 14.57425 6.9828642 14.514466 7.0039062 14.384766 L 7.0058594 14.375 L 7.0078125 14.363281 C 7.0381135 14.131881 7.0717415 14.126566 7.2285156 14.072266 C 7.3069026 14.045266 7.4217342 14.029344 7.5566406 14.027344 L 7.5566406 14.023438 z M 9 17 A 1 1 0 0 0 8 18 A 1 1 0 0 0 9 19 A 1 1 0 0 0 10 18 A 1 1 0 0 0 9 17 z M 15 17 A 1 1 0 0 0 14 18 A 1 1 0 0 0 15 19 A 1 1 0 0 0 16 18 A 1 1 0 0 0 15 17 z M 12 18 A 1 1 0 0 0 11 19 A 1 1 0 0 0 12 20 A 1 1 0 0 0 13 19 A 1 1 0 0 0 12 18 z" transform="translate(0,1028.3622)"/>
  <path style="opacity:0.2;fill:#ffffff" d="M 12 2 A 10 10 0 0 0 2 12 A 10 10 0 0 0 2.0097656 12.292969 A 10 10 0 0 1 12 2.5 A 10 10 0 0 1 21.990234 12.207031 A 10 10 0 0 0 22 12 A 10 10 0 0 0 12 2 z" transform="translate(0,1028.3622)"/>
 </g>
</svg>
